public/images/case-studies/maikeinc/feature1.svg

<svg width="64" height="64" viewBox="0 0 64 64" fill="none" xmlns="http://www.w3.org/2000/svg">
<path d="M63.6811 12.0427L51.9478 0.309333C51.7444 0.112858 51.4732 0.00210591 51.1905 0H24.5238C23.6759 0.00253236 22.8634 0.340488 22.2638 0.940056C21.6643 1.53962 21.3263 2.35209 21.3238 3.2V9.65333C15.5782 9.92264 10.1571 12.3946 6.18629 16.5559C2.21545 20.7172 0 26.2481 0 32C0 37.7519 2.21545 43.2828 6.18629 47.4441C10.1571 51.6054 15.5782 54.0774 21.3238 54.3467V60.8C21.3263 61.6479 21.6643 62.4604 22.2638 63.0599C22.8634 63.6595 23.6759 63.9975 24.5238 64H60.7905C61.6384 63.9975 62.4508 63.6595 63.0504 63.0599C63.65 62.4604 63.9879 61.6479 63.9905 60.8V12.8C63.9883 12.5172 63.8776 12.2461 63.6811 12.0427ZM52.2571 3.63733L60.3531 11.7333H53.3238C53.0409 11.7333 52.7696 11.621 52.5695 11.4209C52.3695 11.2209 52.2571 10.9496 52.2571 10.6667V3.63733ZM2.12379 32C2.13073 26.812 4.12457 21.8238 7.69553 18.0604C11.2665 14.297 16.1433 12.0443 21.3238 11.7653V31.5627L7.35045 45.536C3.98673 41.8302 2.12345 37.0047 2.12379 32ZM8.85445 47.04L22.8278 33.0667H42.6251C42.4308 36.8888 41.1562 40.5773 38.9493 43.704C36.7424 46.8306 33.6938 49.267 30.1576 50.7302C26.6213 52.1934 22.7425 52.6234 18.9716 51.9702C15.2007 51.317 11.6925 49.6074 8.85445 47.04ZM61.8571 60.8C61.8571 61.0829 61.7447 61.3542 61.5447 61.5543C61.3447 61.7543 61.0733 61.8667 60.7905 61.8667H24.5238C24.2409 61.8667 23.9696 61.7543 23.7695 61.5543C23.5695 61.3542 23.4571 61.0829 23.4571 60.8V54.3467C29.2007 54.0692 34.618 51.595 38.5886 47.4357C42.5593 43.2765 44.7796 37.7503 44.7905 32C44.7905 31.7171 44.6781 31.4458 44.478 31.2458C44.278 31.0457 44.0067 30.9333 43.7238 30.9333H23.4571V3.2C23.4571 2.9171 23.5695 2.64579 23.7695 2.44575C23.9696 2.24571 24.2409 2.13333 24.5238 2.13333H50.1238V10.6667C50.1263 11.5146 50.4643 12.327 51.0638 12.9266C51.6634 13.5262 52.4759 13.8641 53.3238 13.8667H61.8571V60.8Z" fill="#7F8284"/>
<path d="M26.657 5.33301C26.3741 5.33301 26.1028 5.44539 25.9028 5.64543C25.7027 5.84547 25.5903 6.11678 25.5903 6.39967V27.733C25.5903 28.0159 25.7027 28.2872 25.9028 28.4873C26.1028 28.6873 26.3741 28.7997 26.657 28.7997H47.9903C48.2732 28.7997 48.5445 28.6873 48.7446 28.4873C48.9446 28.2872 49.057 28.0159 49.057 27.733C49.0505 21.7942 46.6884 16.1004 42.489 11.901C38.2896 7.70158 32.5959 5.3395 26.657 5.33301ZM27.7237 26.6663V7.49834C32.7202 7.76663 37.4414 9.87224 40.9796 13.4104C44.5178 16.9486 46.6234 21.6698 46.8917 26.6663H27.7237Z" fill="#FF6B00"/>
<path d="M50.1239 40.5332C48.2252 40.5332 46.3692 41.0962 44.7905 42.1511C43.2117 43.206 41.9813 44.7053 41.2547 46.4594C40.5281 48.2136 40.338 50.1439 40.7084 52.0061C41.0788 53.8683 41.9931 55.5788 43.3357 56.9214C44.6783 58.264 46.3888 59.1783 48.2511 59.5487C50.1133 59.9192 52.0435 59.729 53.7977 59.0024C55.5519 58.2758 57.0512 57.0454 58.106 55.4667C59.1609 53.888 59.7239 52.0319 59.7239 50.1332C59.72 47.5883 58.7073 45.1488 56.9078 43.3493C55.1083 41.5498 52.6688 40.5372 50.1239 40.5332ZM50.1239 57.5999C48.6472 57.5999 47.2036 57.162 45.9757 56.3415C44.7478 55.5211 43.7908 54.3549 43.2256 52.9906C42.6605 51.6262 42.5126 50.1249 42.8007 48.6765C43.0888 47.2281 43.8 45.8977 44.8442 44.8535C45.8884 43.8092 47.2189 43.0981 48.6673 42.81C50.1156 42.5219 51.6169 42.6698 52.9813 43.2349C54.3457 43.8 55.5118 44.7571 56.3322 45.9849C57.1527 47.2128 57.5906 48.6564 57.5906 50.1332C57.5883 52.1128 56.801 54.0107 55.4012 55.4104C54.0014 56.8102 52.1035 57.5976 50.1239 57.5999Z" fill="#7F8284"/>
<path d="M47.9903 51.8251L45.5444 49.3792L44.0361 50.8875L47.2361 54.0875C47.4362 54.2874 47.7074 54.3998 47.9903 54.3998C48.2731 54.3998 48.5444 54.2874 48.7444 54.0875L55.1444 47.6875L53.6361 46.1792L47.9903 51.8251Z" fill="#FF6B00"/>
<path d="M51.1904 18.1333H59.7238V20.2666H51.1904V18.1333Z" fill="#FF6B00"/>
<path d="M51.1904 24.5332H59.7238V26.6665H51.1904V24.5332Z" fill="#FF6B00"/>
<path d="M51.1904 30.9336H59.7238V33.0669H51.1904V30.9336Z" fill="#FF6B00"/>
</svg>

<svg xmlns="http://www.w3.org/2000/svg" width="64" height="64" fill="none" xmlns:v="https://vecta.io/nano"><path d="M63.681 12.043L51.948.309A1.1 1.1 0 0 0 51.191 0H24.524a3.21 3.21 0 0 0-3.2 3.2v6.453A22.37 22.37 0 0 0 0 32a22.37 22.37 0 0 0 21.324 22.347V60.8a3.21 3.21 0 0 0 3.2 3.2h36.267a3.21 3.21 0 0 0 3.2-3.2v-48a1.1 1.1 0 0 0-.309-.757zM52.257 3.637l8.096 8.096h-7.029c-.283 0-.554-.112-.754-.312s-.312-.471-.312-.754V3.637zM2.124 32a20.29 20.29 0 0 1 19.2-20.235v19.797L7.35 45.536A20.14 20.14 0 0 1 2.124 32zm6.731 15.04l13.973-13.973h19.797c-.194 3.822-1.469 7.511-3.676 10.637a20.23 20.23 0 0 1-8.792 7.026c-3.536 1.463-7.415 1.893-11.186 1.24s-7.279-2.363-10.117-4.93zM61.857 60.8c0 .283-.112.554-.312.754s-.471.312-.754.312H24.524c-.283 0-.554-.112-.754-.312s-.312-.471-.312-.754v-6.453c5.744-.277 11.161-2.752 15.131-6.911S44.78 37.75 44.791 32c0-.283-.112-.554-.312-.754s-.471-.312-.754-.312H23.457V3.2c0-.283.112-.554.312-.754s.471-.312.754-.312h25.6v8.533a3.21 3.21 0 0 0 3.2 3.2h8.533V60.8z" fill="#7f8284"/><path d="M26.657 5.333c-.283 0-.554.112-.754.312s-.312.471-.312.754v21.333c0 .283.112.554.313.754s.471.312.754.312H47.99c.283 0 .554-.112.754-.312s.312-.471.312-.754c-.007-5.939-2.369-11.633-6.568-15.832S32.596 5.34 26.657 5.333zm1.067 21.333V7.498c4.996.268 9.718 2.374 13.256 5.912s5.644 8.259 5.912 13.256H27.724z" fill="#ff6b00"/><path d="M50.124 40.533a9.6 9.6 0 0 0-8.869 5.926 9.6 9.6 0 0 0 2.081 10.462 9.6 9.6 0 0 0 10.462 2.081 9.6 9.6 0 0 0 5.926-8.869c-.004-2.545-1.017-4.984-2.816-6.784s-4.239-2.812-6.784-2.816zm0 17.067c-1.477 0-2.92-.438-4.148-1.258s-2.185-1.987-2.75-3.351-.713-2.866-.425-4.314.999-2.779 2.044-3.823 2.375-1.755 3.823-2.043 2.95-.14 4.314.425 2.531 1.522 3.351 2.75 1.258 2.671 1.258 4.148c-.002 1.98-.79 3.877-2.189 5.277s-3.298 2.187-5.277 2.189z" fill="#7f8284"/><path d="M47.99 51.825l-2.446-2.446-1.508 1.508 3.2 3.2c.2.2.471.312.754.312s.554-.112.754-.312l6.4-6.4-1.508-1.508-5.646 5.646zm3.2-33.692h8.533v2.133H51.19v-2.133zm0 6.4h8.533v2.133H51.19v-2.133zm0 6.401h8.533v2.133H51.19v-2.133z" fill="#ff6b00"/></svg>
